X:1
T:Title
%%score { ( 1 3 ) | ( 2 4 ) }
L:1/8
Q:1/4=110
M:4/4
K:G
V:1 treble nm="Grand Piano"
V:3 treble 
V:2 treble 
V:4 treble 
V:1
 D2 G2 G2 A2 | B2 c2 B2 z2 | BAGA B2 [FA]2 | [FA]6 z2 | D2 G2 G2 A2 | B2 c2 B2 z2 | GABc B2 [FA]2 | %7
w: J.~H.~Ruebush * * *|||||||
 G6 z2 | d6 z2 | [DB]6 z2 | [EG]6[K:bass] z2 | [B,D]6 z2 | [Gd]6 z2 | [DB]6 z2 | [GB]6 z2 | %15
w: ||||||||
 G6[K:bass] z2 |] %16
w: |
V:2
 [G,B,]2 [G,B,D]2 [G,B,D]2 [G,CF]2 | [G,DG]2 [G,EG]2 [G,DG]2 z2 | %2
 [G,DG][G,CF][G,B,][G,CF] [G,DG]2[K:bass] [D,D]2 | [D,D]6 z2 | [G,B,]2 [G,B,D]2 [G,B,D]2 [G,CD]2 | %5
 [G,DG]2 [G,EG]2 [G,DG]2 z2 | [G,B,D][G,CD][G,D][G,DE] [G,D]2 [D,C]2 | [G,B,]6 z2 | G6 z2 | %9
 G,[K:bass]G,D,B,, G,,2 D2 | C,2 C,2 C,2 C,2 | G,,G,,B,,D, G,2 z2 | [G,B,]2 G,2 G,2 G,2 | %13
 G,G,D,B,, G,,2 D2 | D,2 D,2 D,2 D,2 | G,,G,,B,,D, G,,2 z2 |] %16
V:3
 x8 | x8 | x8 | x8 | x8 | x8 | x8 | x8 | z2 B,2 B,2 [DB]2 | z2 G,G, G,2 G2 | %10
 C2 C2 C2[K:bass] [G,CE]2 | G,G,G,G, z4 | z2 B,2 B,2 [DB]2 | z2 G,G, G,2 G2 | D2 D2 D2 [CFA]2 | %15
 B,[K:bass]B,B,B, B,2 z2 |] %16
V:4
 x8 | x8 | x6[K:bass] x2 | x8 | x8 | x8 | x8 | x8 | [G,B,]2 G,2 G,2 G,2 | x[K:bass] x7 | x8 | x8 | %12
 x8 | x8 | x8 | x8 |] %16

